src/activities/smallnumbers/resource/dice7.svg

<?xml version="1.0" encoding="UTF-8" standalone="no"?>
<!-- Created with Inkscape (http://www.inkscape.org/) -->

<svg
   xmlns:dc="http://purl.org/dc/elements/1.1/"
   xmlns:cc="http://creativecommons.org/ns#"
   xmlns:rdf="http://www.w3.org/1999/02/22-rdf-syntax-ns#"
   xmlns:svg="http://www.w3.org/2000/svg"
   xmlns="http://www.w3.org/2000/svg"
   xmlns:sodipodi="http://sodipodi.sourceforge.net/DTD/sodipodi-0.dtd"
   xmlns:inkscape="http://www.inkscape.org/namespaces/inkscape"
   width="97.366165"
   height="98.645958"
   id="svg5070"
   sodipodi:version="0.32"
   inkscape:version="0.91 r13725"
   sodipodi:docname="dice7.svg"
   inkscape:export-filename="/home/franck/Gcompris/gartoon/level7.png"
   inkscape:export-xdpi="8.5762272"
   inkscape:export-ydpi="8.5762272"
   inkscape:output_extension="org.inkscape.output.svg.inkscape"
   version="1.0">
  <defs
     id="defs3" />
  <sodipodi:namedview
     inkscape:document-units="px"
     id="base"
     pagecolor="#ffffff"
     bordercolor="#666666"
     borderopacity="1.0"
     inkscape:pageopacity="0.0"
     inkscape:pageshadow="2"
     inkscape:zoom="2.5384506"
     inkscape:cx="54.788664"
     inkscape:cy="44.076161"
     inkscape:current-layer="g16376"
     inkscape:window-width="936"
     inkscape:window-height="1053"
     inkscape:window-x="940"
     inkscape:window-y="0"
     showgrid="false"
     fit-margin-top="0"
     fit-margin-left="0"
     fit-margin-right="0"
     fit-margin-bottom="0"
     inkscape:window-maximized="0" />
  <metadata
     id="metadata4">
    <rdf:RDF>
      <cc:Work
         rdf:about="">
        <dc:format>image/svg+xml</dc:format>
        <dc:type
           rdf:resource="http://purl.org/dc/dcmitype/StillImage" />
        <dc:title></dc:title>
        <dc:date>2015</dc:date>
        <dc:creator>
          <cc:Agent>
            <dc:title>Timothée Giet</dc:title>
          </cc:Agent>
        </dc:creator>
        <cc:license
           rdf:resource="http://creativecommons.org/licenses/by-sa/4.0/" />
      </cc:Work>
      <cc:License
         rdf:about="http://creativecommons.org/licenses/by-sa/4.0/">
        <cc:permits
           rdf:resource="http://creativecommons.org/ns#Reproduction" />
        <cc:permits
           rdf:resource="http://creativecommons.org/ns#Distribution" />
        <cc:requires
           rdf:resource="http://creativecommons.org/ns#Notice" />
        <cc:requires
           rdf:resource="http://creativecommons.org/ns#Attribution" />
        <cc:permits
           rdf:resource="http://creativecommons.org/ns#DerivativeWorks" />
        <cc:requires
           rdf:resource="http://creativecommons.org/ns#ShareAlike" />
      </cc:License>
    </rdf:RDF>
  </metadata>
  <g
     inkscape:label="Layer 1"
     inkscape:groupmode="layer"
     id="layer1"
     transform="translate(-11.427797,-16.400059)">
    <g
       id="g16376"
       transform="matrix(0.143061,0,0,0.1477225,10.757493,-20.008687)">
      <path
         style="fill:#991919;fill-opacity:1;fill-rule:evenodd;stroke:none;stroke-width:0.14504871pt;stroke-linecap:butt;stroke-linejoin:miter;stroke-opacity:1"
         d="m 48.448627,426.27346 c 0,0 81.760383,-99.79145 158.393893,-144.96257 47.56054,-28.03424 111.49816,-39.75314 167.22367,-31.7537 100.51752,14.42937 242.38885,69.23995 242.38885,69.23995 39.87195,11.04476 73.04989,34.12555 67.57705,90.61724 -9.37691,96.7878 -28.77542,168.66416 -56.61431,257.89256 -11.85895,38.00994 -27.63802,78.67316 -39.11423,107.00455 -13.39643,33.0718 -30.89108,62.43547 -41.8738,85.89574 -16.86767,36.03101 -64.41649,53.88401 -106.33458,53.41658 C 378.18982,912.93353 258.60752,881.6012 164.11461,836.01532 121.53009,815.47141 91.743718,790.05277 79.275729,756.42622 50.951322,680.03449 5.3819559,615.86835 5.3191715,532.2512 5.2848715,486.56205 23.292938,459.40776 48.448627,426.27346 Z"
         id="rect5098"
         sodipodi:nodetypes="csscssssssssc"
         inkscape:connector-curvature="0" />
      <path
         style="fill:#e82727;fill-opacity:1;fill-rule:evenodd;stroke:none"
         d="m 356.29158,277.35697 c 101.90407,10.95747 157.52029,38.13849 242.58024,65.99636 44.23668,14.48789 81.70985,44.97086 37.71205,118.00209 L 514.67272,663.71354 C 488.1,708.19096 413.06534,716.98797 365.69215,704.22305 L 105.06388,608.6304 C 57.690678,595.86548 10.056417,532.77402 38.005676,488.44664 77.456316,425.87813 142.58281,362.62968 204.8917,308.7166 242.77867,275.93473 307.95995,272.16001 356.29158,277.35697 Z"
         id="rect5076"
         sodipodi:nodetypes="csscccsss"
         inkscape:connector-curvature="0" />
      <path
         style="fill:#c21919;fill-opacity:1;fill-rule:evenodd;stroke:none"
         d="M 378.09775,895.65904 C 292.09005,879.86923 234.87297,848.76666 167.60823,819.45544 130.50025,803.28527 99.846199,765.11891 91.392672,735.081 L 59.229553,643.35055 C 43.764597,599.24389 70.068076,600.48433 116.7575,619.07032 l 255.49524,92.18929 c 39.81769,11.88637 73.95519,39.68724 74.00068,86.75625 0.021,21.57145 -0.33713,37.35974 -3.67005,66.58177 -2.20655,19.34607 -22.12198,38.8389 -64.48562,31.06141 z"
         id="path6555"
         sodipodi:nodetypes="cscsccsss"
         inkscape:connector-curvature="0" />
      <path
         style="fill:#c21919;fill-opacity:1;fill-rule:evenodd;stroke:none"
         d="m 571.45742,763.76777 c -11.75436,23.69525 -24.29658,59.8034 -40.42724,88.59259 -22.68051,40.47907 -68.43123,47.51544 -66.27858,19.38682 l 5.14728,-67.25875 c 3.59175,-46.93305 29.52843,-99.21548 44.45972,-123.12329 40.59669,-65.00283 90.44209,-137.32244 127.10438,-194.67997 14.43153,-22.57775 17.50798,3.63408 12.39758,21.33543 l -44.76555,155.05804 c -8.46434,29.31863 -27.60489,80.46452 -37.63759,100.68913 z"
         id="path7283"
         sodipodi:nodetypes="sssssssss"
         inkscape:connector-curvature="0" />
      <path
         style="fill:#ecc9c0;fill-opacity:1;fill-rule:evenodd;stroke:none"
         d="M 84.462891 52.796875 C 84.384346 52.803474 84.30109 52.824029 84.212891 52.859375 A 1.3153593 3.6045772 18.429886 0 0 84.197266 52.861328 A 1.3153593 3.6045772 18.429886 0 0 81.988281 56.400391 A 1.3153593 3.6045772 18.429886 0 0 82.34375 59.716797 L 82.537109 59.660156 C 82.594021 59.650089 82.653612 59.633108 82.714844 59.609375 L 82.880859 59.560547 A 1.3153593 3.6045772 18.429886 0 0 83.070312 59.416016 C 83.833227 58.889837 84.731968 57.649643 85.080078 56.5 C 85.648233 54.623651 85.405425 52.717682 84.462891 52.796875 z M 17.460938 58.478516 C 15.801116 58.435234 14.442755 59.284843 14.519531 60.917969 A 4.7374526 2.7915277 33.312765 0 0 14.513672 60.976562 A 4.7374526 2.7915277 33.312765 0 0 18.332031 65.533203 A 4.7374526 2.7915277 33.312765 0 0 22.925781 64.740234 L 22.931641 64.347656 C 22.943177 64.222449 22.944463 64.092106 22.9375 63.957031 L 22.941406 63.623047 A 4.7374526 2.7915277 33.312765 0 0 22.824219 63.226562 C 22.437442 61.644742 21.156739 59.78785 19.763672 59.080078 C 19.004808 58.694525 18.20267 58.497857 17.460938 58.478516 z M 51.03125 71.152344 C 49.371428 71.109063 48.013068 71.958671 48.089844 73.591797 A 4.7374526 2.7915277 33.312765 0 0 48.083984 73.650391 A 4.7374526 2.7915277 33.312765 0 0 51.902344 78.205078 A 4.7374526 2.7915277 33.312765 0 0 56.496094 77.414062 L 56.501953 77.015625 C 56.513086 76.892171 56.51462 76.763876 56.507812 76.630859 L 56.511719 76.296875 A 4.7374526 2.7915277 33.312765 0 0 56.396484 75.902344 C 56.01073 74.319791 54.728048 72.462184 53.333984 71.753906 C 52.575121 71.368353 51.772982 71.171685 51.03125 71.152344 z M 22.976562 76.707031 C 21.316741 76.66375 19.95838 77.513358 20.035156 79.146484 A 4.7374526 2.7915277 33.312765 0 0 20.029297 79.205078 A 4.7374526 2.7915277 33.312765 0 0 23.845703 83.759766 A 4.7374526 2.7915277 33.312765 0 0 28.441406 82.96875 L 28.447266 82.570312 C 28.458398 82.446858 28.459933 82.318564 28.453125 82.185547 L 28.457031 81.851562 A 4.7374526 2.7915277 33.312765 0 0 28.341797 81.457031 C 27.956043 79.874478 26.671407 78.016872 25.277344 77.308594 C 24.51848 76.923041 23.718295 76.726373 22.976562 76.707031 z M 74.898438 79.132812 C 74.823511 79.139108 74.743871 79.159 74.660156 79.191406 C 74.656114 79.192971 74.6525 79.191731 74.648438 79.193359 A 1.3153593 3.6045772 18.429886 0 0 74.632812 79.195312 A 1.3153593 3.6045772 18.429886 0 0 72.423828 82.736328 A 1.3153593 3.6045772 18.429886 0 0 72.779297 86.052734 L 72.972656 85.996094 C 73.029568 85.986026 73.089159 85.969045 73.150391 85.945312 L 73.316406 85.896484 A 1.3153593 3.6045772 18.429886 0 0 73.505859 85.751953 C 74.268774 85.225774 75.167515 83.985581 75.515625 82.835938 C 76.08378 80.959588 75.840972 79.053619 74.898438 79.132812 z M 52.705078 87.425781 C 51.045256 87.3825 49.684943 88.232108 49.761719 89.865234 A 4.7374526 2.7915277 33.312765 0 0 49.755859 89.923828 A 4.7374526 2.7915277 33.312765 0 0 53.574219 94.480469 A 4.7374526 2.7915277 33.312765 0 0 58.169922 93.6875 L 58.175781 93.277344 C 58.18536 93.164745 58.184964 93.048267 58.179688 92.927734 L 58.185547 92.570312 A 4.7374526 2.7915277 33.312765 0 0 58.070312 92.177734 C 57.685176 90.594741 56.400522 88.735927 55.005859 88.027344 C 54.246996 87.641791 53.44681 87.445123 52.705078 87.425781 z "
         transform="matrix(6.9900252,0,0,6.7694495,4.6854419,246.46717)"
         id="path1340" />
      <path
         style="fill:#f2dbd4;fill-opacity:1;fill-rule:evenodd;stroke:none"
         d="M 44.533203 8.71875 C 43.898194 8.7392624 43.300505 8.8307199 42.78125 9.0058594 C 39.400304 10.146219 37.632876 13.46467 40.087891 15.505859 A 3.6704489 6.2181149 80.133046 0 0 40.167969 15.589844 A 3.6704489 6.2181149 80.133046 0 0 48.099609 16.181641 A 3.6704489 6.2181149 80.133046 0 0 51.269531 11.205078 L 50.867188 10.835938 C 50.754912 10.717835 50.630029 10.604813 50.494141 10.494141 L 50.148438 10.177734 A 3.6704489 6.2181149 80.133046 0 0 49.650391 9.9296875 C 48.231783 9.1422758 46.254065 8.6631618 44.533203 8.71875 z M 78.328125 19.910156 C 77.693116 19.930669 77.093474 20.024079 76.574219 20.199219 C 73.182591 21.343182 71.412734 24.679257 73.902344 26.71875 A 3.6704489 6.2181149 80.133046 0 0 73.960938 26.78125 A 3.6704489 6.2181149 80.133046 0 0 81.894531 27.373047 A 3.6704489 6.2181149 80.133046 0 0 85.064453 22.398438 L 84.65625 22.025391 C 84.545893 21.909686 84.424063 21.798015 84.291016 21.689453 L 83.941406 21.371094 A 3.6704489 6.2181149 80.133046 0 0 83.4375 21.121094 C 82.019207 20.335293 80.047029 19.854631 78.328125 19.910156 z M 31.144531 21.228516 C 30.509522 21.249028 29.90988 21.340486 29.390625 21.515625 C 25.998997 22.659588 24.22914 25.995664 26.71875 28.035156 A 3.6704489 6.2181149 80.133046 0 0 26.777344 28.097656 A 3.6704489 6.2181149 80.133046 0 0 34.710938 28.691406 A 3.6704489 6.2181149 80.133046 0 0 37.880859 23.714844 L 37.472656 23.341797 C 37.362299 23.226092 37.240469 23.114421 37.107422 23.005859 L 36.757812 22.6875 A 3.6704489 6.2181149 80.133046 0 0 36.253906 22.4375 C 34.835613 21.651699 32.863435 21.172991 31.144531 21.228516 z M 48.998047 27.810547 C 48.363037 27.831059 47.763396 27.92447 47.244141 28.099609 C 43.851982 29.243751 42.080931 32.581688 44.572266 34.621094 A 3.6704489 6.2181149 80.133046 0 0 44.630859 34.681641 A 3.6704489 6.2181149 80.133046 0 0 52.564453 35.275391 A 3.6704489 6.2181149 80.133046 0 0 55.734375 30.298828 L 55.326172 29.925781 C 55.215815 29.810077 55.093985 29.698406 54.960938 29.589844 L 54.611328 29.271484 A 3.6704489 6.2181149 80.133046 0 0 54.107422 29.021484 C 52.689129 28.235683 50.716951 27.755022 48.998047 27.810547 z M 67.488281 35.054688 C 66.853272 35.0752 66.255584 35.166657 65.736328 35.341797 C 62.329379 36.490927 60.55218 39.853777 63.091797 41.890625 A 3.6704489 6.2181149 80.133046 0 0 63.123047 41.923828 A 3.6704489 6.2181149 80.133046 0 0 71.054688 42.517578 A 3.6704489 6.2181149 80.133046 0 0 74.224609 37.541016 L 73.816406 37.167969 C 73.706049 37.052264 73.584219 36.940593 73.451172 36.832031 L 73.101562 36.513672 A 3.6704489 6.2181149 80.133046 0 0 72.603516 36.265625 C 71.184932 35.478338 69.208991 34.999104 67.488281 35.054688 z M 17.822266 35.53125 C 17.187256 35.551762 16.589568 35.645173 16.070312 35.820312 C 12.663364 36.969443 10.886164 40.332293 13.425781 42.369141 A 3.6704489 6.2181149 80.133046 0 0 13.457031 42.402344 A 3.6704489 6.2181149 80.133046 0 0 21.388672 42.994141 A 3.6704489 6.2181149 80.133046 0 0 24.558594 38.019531 L 24.150391 37.646484 C 24.040034 37.53078 23.918204 37.419109 23.785156 37.310547 L 23.435547 36.992188 A 3.6704489 6.2181149 80.133046 0 0 22.9375 36.744141 C 21.518916 35.956854 19.542975 35.475667 17.822266 35.53125 z M 57.287109 51.513672 C 56.6521 51.534184 56.052459 51.625642 55.533203 51.800781 C 52.141045 52.944923 50.369994 56.284813 52.861328 58.324219 A 3.6704489 6.2181149 80.133046 0 0 52.919922 58.384766 A 3.6704489 6.2181149 80.133046 0 0 60.853516 58.976562 A 3.6704489 6.2181149 80.133046 0 0 64.023438 54.001953 L 63.617188 53.630859 C 63.504861 53.51287 63.380035 53.399628 63.244141 53.289062 L 62.900391 52.974609 A 3.6704489 6.2181149 80.133046 0 0 62.402344 52.726562 C 60.983681 51.938868 59.008314 51.458073 57.287109 51.513672 z "
         transform="matrix(6.9900252,0,0,6.7694495,4.6854419,246.46717)"
         id="path8739" />
    </g>
  </g>
</svg>

<!--Created with Inkscape (http://www.inkscape.org/)--><svg xmlns:dc="http://purl.org/dc/elements/1.1/" xmlns:cc="http://creativecommons.org/ns#" xmlns:rdf="http://www.w3.org/1999/02/22-rdf-syntax-ns#" xmlns="http://www.w3.org/2000/svg" xmlns:sodipodi="http://sodipodi.sourceforge.net/DTD/sodipodi-0.dtd" xmlns:inkscape="http://www.inkscape.org/namespaces/inkscape" width="97.366165" height="98.645958" sodipodi:version="0.32" inkscape:version="0.91 r13725" sodipodi:docname="dice7.svg" inkscape:export-filename="/home/franck/Gcompris/gartoon/level7.png" inkscape:export-xdpi="8.5762272" inkscape:export-ydpi="8.5762272" inkscape:output_extension="org.inkscape.output.svg.inkscape" version="1.0"><sodipodi:namedview inkscape:document-units="px" pagecolor="#ffffff" bordercolor="#666666" borderopacity="1.0" inkscape:pageopacity="0.0" inkscape:pageshadow="2" inkscape:zoom="2.5384506" inkscape:cx="54.788664" inkscape:cy="44.076161" inkscape:current-layer="g16376" inkscape:window-width="936" inkscape:window-height="1053" inkscape:window-x="940" inkscape:window-y="0" showgrid="false" fit-margin-top="0" fit-margin-left="0" fit-margin-right="0" fit-margin-bottom="0" inkscape:window-maximized="0"/><metadata><rdf:RDF><cc:Work><dc:format>image/svg+xml</dc:format><dc:type rdf:resource="http://purl.org/dc/dcmitype/StillImage"/><dc:title/><dc:date>2015</dc:date><dc:creator><cc:Agent><dc:title>Timothée Giet</dc:title></cc:Agent></dc:creator><cc:license rdf:resource="http://creativecommons.org/licenses/by-sa/4.0/"/></cc:Work><cc:License rdf:about="http://creativecommons.org/licenses/by-sa/4.0/"><cc:permits rdf:resource="http://creativecommons.org/ns#Reproduction"/><cc:permits rdf:resource="http://creativecommons.org/ns#Distribution"/><cc:requires rdf:resource="http://creativecommons.org/ns#Notice"/><cc:requires rdf:resource="http://creativecommons.org/ns#Attribution"/><cc:permits rdf:resource="http://creativecommons.org/ns#DerivativeWorks"/><cc:requires rdf:resource="http://creativecommons.org/ns#ShareAlike"/></cc:License></rdf:RDF></metadata><g inkscape:label="Layer 1" inkscape:groupmode="layer"><path style="fill:#991919;fill-opacity:1;fill-rule:evenodd;stroke:none;stroke-width:.14504871pt;stroke-linecap:butt;stroke-linejoin:miter;stroke-opacity:1" d="M48.449 426.273s81.76-99.791 158.394-144.962c47.56-28.034 111.498-39.753 167.223-31.754 100.518 14.43 242.389 69.24 242.389 69.24 39.872 11.045 73.05 34.126 67.577 90.617-9.377 96.788-28.775 168.665-56.614 257.893-11.86 38.01-27.638 78.673-39.114 107.004-13.397 33.072-30.892 62.436-41.874 85.896-16.868 36.031-64.417 53.884-106.335 53.417-61.905-.69-181.487-32.023-275.98-77.609-42.585-20.544-72.371-45.962-84.84-79.589C50.952 680.034 5.383 615.868 5.32 532.251c-.034-45.689 17.974-72.843 43.13-105.978z" sodipodi:nodetypes="csscssssssssc" inkscape:connector-curvature="0" transform="matrix(.14306 0 0 .14772 -.67 -36.409)"/><path style="fill:#e82727;fill-opacity:1;fill-rule:evenodd;stroke:none" d="M356.292 277.357c101.904 10.957 157.52 38.138 242.58 65.996 44.237 14.488 81.71 44.971 37.712 118.002L514.673 663.714c-26.573 44.477-101.608 53.274-148.98 40.509l-260.63-95.593c-47.372-12.765-95.007-75.856-67.057-120.183 39.45-62.569 104.577-125.817 166.886-179.73 37.887-32.782 103.068-36.557 151.4-31.36z" sodipodi:nodetypes="csscccsss" inkscape:connector-curvature="0" transform="matrix(.14306 0 0 .14772 -.67 -36.409)"/><path style="fill:#c21919;fill-opacity:1;fill-rule:evenodd;stroke:none" d="M378.098 895.659c-86.008-15.79-143.225-46.892-210.49-76.204-37.108-16.17-67.762-54.336-76.215-84.374l-32.163-91.73c-15.465-44.107 10.838-42.867 57.527-24.28l255.496 92.189c39.817 11.886 73.955 39.687 74 86.756.021 21.571-.337 37.36-3.67 66.582-2.206 19.346-22.122 38.839-64.485 31.061z" sodipodi:nodetypes="cscsccsss" inkscape:connector-curvature="0" transform="matrix(.14306 0 0 .14772 -.67 -36.409)"/><path style="fill:#c21919;fill-opacity:1;fill-rule:evenodd;stroke:none" d="M571.457 763.768c-11.754 23.695-24.296 59.803-40.427 88.592-22.68 40.48-68.431 47.516-66.278 19.387l5.147-67.259c3.592-46.933 29.528-99.215 44.46-123.123 40.596-65.003 90.442-137.322 127.104-194.68 14.432-22.578 17.508 3.634 12.398 21.336l-44.766 155.058c-8.464 29.318-27.605 80.464-37.638 100.689z" sodipodi:nodetypes="sssssssss" inkscape:connector-curvature="0" transform="matrix(.14306 0 0 .14772 -.67 -36.409)"/><path style="fill:#ecc9c0;fill-opacity:1;fill-rule:evenodd;stroke:none" d="M84.463 52.797a.87.87 0 0 0-.25.062 1.315 3.605 18.43 0 0-.016.002 1.315 3.605 18.43 0 0-2.209 3.54 1.315 3.605 18.43 0 0 .356 3.316l.193-.057a.954.954 0 0 0 .178-.05l.166-.05a1.315 3.605 18.43 0 0 .19-.144c.762-.526 1.661-1.766 2.01-2.916.567-1.876.324-3.782-.618-3.703zM17.46 58.479c-1.66-.044-3.018.806-2.941 2.439a4.737 2.792 33.313 0 0-.006.059 4.737 2.792 33.313 0 0 3.818 4.556 4.737 2.792 33.313 0 0 4.594-.793l.006-.392c.011-.126.012-.256.006-.391l.003-.334a4.737 2.792 33.313 0 0-.117-.396c-.387-1.582-1.667-3.44-3.06-4.147a5.454 5.454 0 0 0-2.303-.601zm33.57 12.673c-1.66-.043-3.018.807-2.941 2.44a4.737 2.792 33.313 0 0-.006.058 4.737 2.792 33.313 0 0 3.818 4.555 4.737 2.792 33.313 0 0 4.594-.79l.006-.4c.011-.123.013-.251.006-.384l.004-.334a4.737 2.792 33.313 0 0-.116-.395c-.385-1.582-1.668-3.44-3.062-4.148a5.454 5.454 0 0 0-2.303-.602zm-28.054 5.555c-1.66-.043-3.019.806-2.942 2.44a4.737 2.792 33.313 0 0-.006.058 4.737 2.792 33.313 0 0 3.817 4.555 4.737 2.792 33.313 0 0 4.595-.791l.006-.399c.011-.123.013-.251.006-.384l.004-.334a4.737 2.792 33.313 0 0-.115-.395c-.386-1.583-1.67-3.44-3.065-4.148a5.446 5.446 0 0 0-2.3-.602zm51.921 2.426a.866.866 0 0 0-.238.058c-.004.002-.007 0-.012.002a1.315 3.605 18.43 0 0-.015.002 1.315 3.605 18.43 0 0-2.21 3.541 1.315 3.605 18.43 0 0 .356 3.317l.194-.057a.954.954 0 0 0 .177-.05l.166-.05a1.315 3.605 18.43 0 0 .19-.144c.763-.526 1.662-1.766 2.01-2.916.568-1.876.325-3.782-.618-3.703zm-22.193 8.293c-1.66-.044-3.02.806-2.943 2.44a4.737 2.792 33.313 0 0-.006.058 4.737 2.792 33.313 0 0 3.818 4.556 4.737 2.792 33.313 0 0 4.596-.793l.006-.41c.01-.112.009-.229.004-.35l.006-.357a4.737 2.792 33.313 0 0-.116-.392c-.385-1.583-1.67-3.442-3.064-4.15a5.446 5.446 0 0 0-2.3-.602z"/><path style="fill:#f2dbd4;fill-opacity:1;fill-rule:evenodd;stroke:none" d="M44.533 8.719c-.635.02-1.232.112-1.752.287-3.38 1.14-5.148 4.459-2.693 6.5a3.67 6.218 80.133 0 0 .08.084 3.67 6.218 80.133 0 0 7.932.592 3.67 6.218 80.133 0 0 3.17-4.977l-.403-.37a3.984 3.984 0 0 0-.373-.34l-.346-.317a3.67 6.218 80.133 0 0-.498-.248c-1.418-.788-3.396-1.267-5.117-1.211zM78.328 19.91c-.635.02-1.235.114-1.754.29-3.391 1.143-5.161 4.48-2.672 6.519a3.67 6.218 80.133 0 0 .059.062 3.67 6.218 80.133 0 0 7.934.592 3.67 6.218 80.133 0 0 3.17-4.975l-.409-.373a3.984 3.984 0 0 0-.365-.336l-.35-.318a3.67 6.218 80.133 0 0-.504-.25c-1.418-.786-3.39-1.266-5.109-1.21zM31.145 21.23c-.635.02-1.235.111-1.754.287-3.392 1.144-5.162 4.48-2.672 6.52a3.67 6.218 80.133 0 0 .058.062 3.67 6.218 80.133 0 0 7.934.593 3.67 6.218 80.133 0 0 3.17-4.976l-.408-.373a3.984 3.984 0 0 0-.366-.336l-.35-.319a3.67 6.218 80.133 0 0-.503-.25c-1.418-.785-3.39-1.264-5.11-1.208zm17.853 6.582c-.635.02-1.235.113-1.754.289-3.392 1.144-5.163 4.482-2.672 6.521a3.67 6.218 80.133 0 0 .059.06 3.67 6.218 80.133 0 0 7.933.594 3.67 6.218 80.133 0 0 3.17-4.976l-.408-.373a3.984 3.984 0 0 0-.365-.336l-.35-.319a3.67 6.218 80.133 0 0-.504-.25c-1.418-.785-3.39-1.266-5.109-1.21zm18.49 7.244c-.635.02-1.232.112-1.752.287-3.407 1.149-5.184 4.512-2.644 6.549a3.67 6.218 80.133 0 0 .031.033 3.67 6.218 80.133 0 0 7.932.594 3.67 6.218 80.133 0 0 3.17-4.977l-.409-.373a3.984 3.984 0 0 0-.365-.336l-.35-.318a3.67 6.218 80.133 0 0-.497-.248c-1.42-.788-3.395-1.267-5.116-1.211zm-49.666.476c-.635.02-1.232.114-1.752.29-3.407 1.148-5.184 4.511-2.644 6.548a3.67 6.218 80.133 0 0 .031.033 3.67 6.218 80.133 0 0 7.932.592 3.67 6.218 80.133 0 0 3.17-4.974l-.409-.374a3.984 3.984 0 0 0-.365-.335l-.35-.319a3.67 6.218 80.133 0 0-.497-.248c-1.42-.787-3.395-1.268-5.116-1.213zm39.465 15.983c-.635.02-1.235.112-1.754.287-3.392 1.144-5.163 4.484-2.672 6.523a3.67 6.218 80.133 0 0 .059.06 3.67 6.218 80.133 0 0 7.934.593 3.67 6.218 80.133 0 0 3.17-4.975l-.407-.371a3.991 3.991 0 0 0-.373-.342l-.344-.314a3.67 6.218 80.133 0 0-.498-.248c-1.418-.788-3.394-1.269-5.115-1.213z"/></g></svg>
